assets/icons/subtitles.svg

<?xml version="1.0" encoding="UTF-8" standalone="no"?>
<svg viewBox="0 0 24 24" version="1.1" id="svg10" sodipodi:docname="subtitles.svg" inkscape:version="1.1 (ce6663b3b7, 2021-05-25)" width="24" height="24"
   xmlns:inkscape="http://www.inkscape.org/namespaces/inkscape"
   xmlns:sodipodi="http://sodipodi.sourceforge.net/DTD/sodipodi-0.dtd"
   xmlns="http://www.w3.org/2000/svg"
   xmlns:svg="http://www.w3.org/2000/svg"
   xmlns:rdf="http://www.w3.org/1999/02/22-rdf-syntax-ns#"
   xmlns:cc="http://creativecommons.org/ns#"
   xmlns:dc="http://purl.org/dc/elements/1.1/">
   <metadata id="metadata16">
      <rdf:RDF>
         <cc:Work rdf:about="">
            <dc:format>image/svg+xml</dc:format>
            <dc:type rdf:resource="http://purl.org/dc/dcmitype/StillImage" />
         </cc:Work>
      </rdf:RDF>
   </metadata>
   <defs id="defs14" />
   <sodipodi:namedview pagecolor="#ffffff" bordercolor="#666666" borderopacity="1" objecttolerance="10" gridtolerance="10" guidetolerance="10" inkscape:pageopacity="0" inkscape:pageshadow="2" inkscape:window-width="1920" inkscape:window-height="1016" id="namedview12" showgrid="true" inkscape:zoom="13.75" inkscape:cx="-12.109091" inkscape:cy="1.6363637" inkscape:window-x="0" inkscape:window-y="27" inkscape:window-maximized="1" inkscape:current-layer="svg10" inkscape:pagecheckerboard="0">
      <inkscape:grid type="xygrid" id="grid841" />
      <inkscape:grid type="xygrid" id="grid829" dotted="true" spacingx="0.5" spacingy="0.5" empspacing="10" />
   </sodipodi:namedview>
   <path id="path864" style="color:#000000;fill:#808080;-inkscape-stroke:none;fill-opacity:1" d="M 4.7871094 3 C 4.1101636 3.0055872 3.5365073 3.0481526 3.0273438 3.3027344 C 2.6879014 3.4724556 2.3973384 3.765168 2.2304688 4.140625 C 2.0635989 4.516082 2 4.9583339 2 5.5 L 2 15.5 C 2 16.041666 2.0635989 16.483918 2.2304688 16.859375 C 2.3973384 17.234832 2.6879014 17.527544 3.0273438 17.697266 C 3.7062284 18.036708 4.500001 18 5.5 18 L 12.269531 18 L 15.5 21.767578 L 18.757812 17.96875 C 19.616094 17.97155 20.364545 18.00132 20.972656 17.697266 C 21.312099 17.527544 21.602661 17.234832 21.769531 16.859375 C 21.936401 16.483918 22 16.041666 22 15.5 L 22 5.5 C 22 4.9583339 21.9364 4.516082 21.769531 4.140625 C 21.602661 3.765168 21.312099 3.4724556 20.972656 3.3027344 C 20.293771 2.963292 19.499999 3 18.5 3 L 5.5 3 C 5.2500003 3 5.012758 2.9981376 4.7871094 3 z M 5.5 4 L 18.5 4 C 19.499999 4 20.20623 4.036708 20.527344 4.1972656 C 20.687901 4.2775446 20.772339 4.3598326 20.855469 4.546875 C 20.938599 4.7339174 21 5.0416671 21 5.5 L 21 15.5 C 21 15.958333 20.9386 16.266083 20.855469 16.453125 C 20.772339 16.640167 20.687901 16.722456 20.527344 16.802734 C 20.20623 16.963291 19.499999 17 18.5 17 L 18.269531 17 L 15.5 20.232422 L 12.730469 17 L 5.5 17 C 4.500001 17 3.7937704 16.96329 3.4726562 16.802734 C 3.3120991 16.722454 3.2276611 16.640167 3.1445312 16.453125 C 3.0614012 16.266083 3 15.958333 3 15.5 L 3 5.5 C 3 5.0416671 3.0614009 4.7339174 3.1445312 4.546875 C 3.2276613 4.3598326 3.3120991 4.2775442 3.4726562 4.1972656 C 3.7937704 4.0367085 4.500001 4 5.5 4 z M 6.25 10 C 6.1115 10 6 10.1115 6 10.25 L 6 10.75 C 6 10.8885 6.1115 11 6.25 11 L 12.75 11 C 12.8885 11 13 10.8885 13 10.75 L 13 10.25 C 13 10.1115 12.8885 10 12.75 10 L 6.25 10 z M 14.25 10 C 14.1115 10 14 10.1115 14 10.25 L 14 10.75 C 14 10.8885 14.1115 11 14.25 11 L 15.75 11 C 15.8885 11 16 10.8885 16 10.75 L 16 10.25 C 16 10.1115 15.8885 10 15.75 10 L 14.25 10 z M 17.25 10 C 17.1115 10 17 10.1115 17 10.25 L 17 10.75 C 17 10.8885 17.1115 11 17.25 11 L 17.75 11 C 17.8885 11 18 10.8885 18 10.75 L 18 10.25 C 18 10.1115 17.8885 10 17.75 10 L 17.25 10 z M 6.25 12 C 6.1115 12 6 12.1115 6 12.25 L 6 12.75 C 6 12.8885 6.1115 13 6.25 13 L 10.75 13 C 10.8885 13 11 12.8885 11 12.75 L 11 12.25 C 11 12.1115 10.8885 12 10.75 12 L 6.25 12 z M 12.25 12 C 12.1115 12 12 12.1115 12 12.25 L 12 12.75 C 12 12.8885 12.1115 13 12.25 13 L 17.75 13 C 17.8885 13 18 12.8885 18 12.75 L 18 12.25 C 18 12.1115 17.8885 12 17.75 12 L 12.25 12 z M 6.25 14 C 6.1115 14 6 14.1115 6 14.25 L 6 14.75 C 6 14.8885 6.1115 15 6.25 15 L 7.75 15 C 7.8885 15 8 14.8885 8 14.75 L 8 14.25 C 8 14.1115 7.8885 14 7.75 14 L 6.25 14 z M 9.25 14 C 9.1115 14 9 14.1115 9 14.25 L 9 14.75 C 9 14.8885 9.1115 15 9.25 15 L 13.75 15 C 13.8885 15 14 14.8885 14 14.75 L 14 14.25 C 14 14.1115 13.8885 14 13.75 14 L 9.25 14 z M 15.25 14 C 15.1115 14 15 14.1115 15 14.25 L 15 14.75 C 15 14.8885 15.1115 15 15.25 15 L 17.75 15 C 17.8885 15 18 14.8885 18 14.75 L 18 14.25 C 18 14.1115 17.8885 14 17.75 14 L 15.25 14 z " />
</svg>

<svg width="24" height="24" xmlns="http://www.w3.org/2000/svg"><path style="color:#000;fill:gray;-inkscape-stroke:none;fill-opacity:1" d="M4.787 3c-.677.006-1.25.048-1.76.303-.34.17-.63.462-.797.838C2.064 4.516 2 4.958 2 5.5v10c0 .542.064.984.23 1.36.167.375.458.668.797.837.68.34 1.473.303 2.473.303h6.77l3.23 3.768 3.258-3.8c.858.004 1.607.033 2.215-.27.34-.17.63-.463.797-.839.166-.375.23-.817.23-1.359v-10c0-.542-.064-.984-.23-1.36a1.72 1.72 0 0 0-.797-.837C20.293 2.963 19.5 3 18.5 3h-13c-.25 0-.487-.002-.713 0zM5.5 4h13c1 0 1.706.037 2.027.197.16.08.245.163.328.35.084.187.145.495.145.953v10c0 .458-.061.766-.145.953a.615.615 0 0 1-.328.35c-.32.16-1.027.197-2.027.197h-.23l-2.77 3.232L12.73 17H5.5c-1 0-1.706-.037-2.027-.197a.615.615 0 0 1-.328-.35C3.06 16.266 3 15.958 3 15.5v-10c0-.458.061-.766.145-.953a.615.615 0 0 1 .328-.35C3.793 4.037 4.5 4 5.5 4zm.75 6a.25.25 0 0 0-.25.25v.5c0 .139.112.25.25.25h6.5a.25.25 0 0 0 .25-.25v-.5a.25.25 0 0 0-.25-.25h-6.5zm8 0a.25.25 0 0 0-.25.25v.5c0 .139.111.25.25.25h1.5a.25.25 0 0 0 .25-.25v-.5a.25.25 0 0 0-.25-.25h-1.5zm3 0a.25.25 0 0 0-.25.25v.5c0 .139.111.25.25.25h.5a.25.25 0 0 0 .25-.25v-.5a.25.25 0 0 0-.25-.25h-.5zm-11 2a.25.25 0 0 0-.25.25v.5c0 .139.112.25.25.25h4.5a.25.25 0 0 0 .25-.25v-.5a.25.25 0 0 0-.25-.25h-4.5zm6 0a.25.25 0 0 0-.25.25v.5c0 .139.111.25.25.25h5.5a.25.25 0 0 0 .25-.25v-.5a.25.25 0 0 0-.25-.25h-5.5zm-6 2a.25.25 0 0 0-.25.25v.5c0 .139.112.25.25.25h1.5a.25.25 0 0 0 .25-.25v-.5a.25.25 0 0 0-.25-.25h-1.5zm3 0a.25.25 0 0 0-.25.25v.5c0 .139.111.25.25.25h4.5a.25.25 0 0 0 .25-.25v-.5a.25.25 0 0 0-.25-.25h-4.5zm6 0a.25.25 0 0 0-.25.25v.5c0 .139.111.25.25.25h2.5a.25.25 0 0 0 .25-.25v-.5a.25.25 0 0 0-.25-.25h-2.5z"/></svg>
